; generated by PrusaSlicer 2.3.1+linux-x64 on 2021-08-19 at 16:12:57 UTC

; 

; external perimeters extrusion width = 0.45mm
; perimeters extrusion width = 0.45mm
; infill extrusion width = 0.45mm
; solid infill extrusion width = 0.45mm
; top infill extrusion width = 0.40mm
; first layer extrusion width = 0.42mm

M73 P0 R19
M201 X1250 Y1250 Z400 E5000 ; sets maximum accelerations, mm/sec^2
M203 X180 Y180 Z12 E80 ; sets maximum feedrates, mm/sec
M204 P1250 R1250 T1250 ; sets acceleration (P, T) and retract acceleration (R), mm/sec^2
M205 X8.00 Y8.00 Z2.00 E10.00 ; sets the jerk limits, mm/sec
M205 S0 T0 ; sets the minimum extruding and travel feed rate, mm/sec
M107
;TYPE:Custom
G90 ; use absolute coordinates
M83 ; extruder relative mode
M104 S170 ; set extruder temp for bed leveling
M140 S60 ; set bed temp
M109 R170 ; wait for bed leveling temp
M190 S60 ; wait for bed temp
G28 ; home all without mesh bed level
G29 ; mesh bed leveling 
M104 S215 ; set extruder temp
G92 E0.0
G1 Y-2.0 X179 F2400
G1 Z3 F720
M109 S215 ; wait for extruder temp

; intro line
G1 X170 F1000
G1 Z0.2 F720
G1 X110.0 E8.0 F900
G1 X40.0 E10.0 F700
G92 E0.0

M221 S95 ; set flow
G21 ; set units to millimeters
G90 ; use absolute coordinates
M83 ; use relative distances for extrusion
M900 K0.2 ; Filament gcode LA 1.5
; ; Filament gcode LA 1.0
;LAYER_CHANGE
;Z:0.2
;HEIGHT:0.2
;BEFORE_LAYER_CHANGE
G92 E0.0
;0.2


M73 P1 R19
G1 E-3.20000 F4200.000
G1 Z0.200 F9000.000
;AFTER_LAYER_CHANGE
;0.2
G1 Z0.400
G1 X61.278 Y82.112
G1 Z0.200
G1 E3.20000 F2400.000
M204 S800
;TYPE:Skirt
;WIDTH:0.42
G1 F1200.000
G1 X61.900 Y81.879 E0.02083
G1 X62.410 Y81.823 E0.01609
G1 X117.590 Y81.823 E1.73012
G1 X118.488 Y82.001 E0.02872
G1 X119.250 Y82.503 E0.02860
G1 X120.947 Y84.251 E0.07640
G1 X121.256 Y84.865 E0.02154
G1 X121.376 Y85.541 E0.02154
G1 X121.377 Y94.405 E0.27791
G1 X121.300 Y94.985 E0.01835
G1 X121.120 Y95.461 E0.01597
G1 X120.842 Y95.888 E0.01597
G1 X119.250 Y97.497 E0.07095
G1 X118.719 Y97.890 E0.02071
G1 X118.100 Y98.121 E0.02071
G1 X117.590 Y98.177 E0.01609
G1 X62.285 Y98.174 E1.73406
M73 P2 R19
G1 X61.498 Y97.993 E0.02532
G1 X60.816 Y97.560 E0.02532
G1 X59.146 Y95.874 E0.07441
G1 X58.857 Y95.414 E0.01704
G1 X58.679 Y94.900 E0.01704
G1 X58.623 Y94.402 E0.01574
G1 X58.623 Y85.610 E0.27564
G1 X58.692 Y85.045 E0.01787
G1 X58.872 Y84.556 E0.01633
G1 X59.151 Y84.121 E0.01621
G1 X60.744 Y82.508 E0.07107
G1 X61.229 Y82.148 E0.01895
M204 S1250
G1 E-2.24000 F4200.000
;WIPE_START
G1 F7200.000
G1 X61.900 Y81.879 E-0.40024
G1 X62.410 Y81.823 E-0.28441
G1 X62.820 Y81.823 E-0.22735
;WIPE_END
G1 E-0.04800 F4200.000
G1 Z0.400 F9000.000
G1 X61.250 Y79.615
G1 Z0.200
G1 E3.20000 F2400.000
M204 S800
G1 F1200.000
G1 X118.528 Y79.568 E1.79591
G1 X119.491 Y79.890 E0.03186
G1 X120.455 Y80.449 E0.03493
G1 X122.557 Y82.505 E0.09220
G1 X123.342 Y83.773 E0.04675
G1 X123.715 Y85.255 E0.04791
G1 X123.584 Y95.555 E0.32296
G1 X123.245 Y96.446 E0.02990
G1 X122.736 Y97.270 E0.03036
G1 X120.713 Y99.340 E0.09076
G1 X119.753 Y99.992 E0.03639
G1 X118.695 Y100.396 E0.03550
G1 X118.367 Y100.445 E0.01040
G1 X62.040 Y100.514 E1.76609
G1 X60.572 Y100.141 E0.04750
G1 X59.303 Y99.355 E0.04680
G1 X57.264 Y97.270 E0.09144
G1 X56.755 Y96.446 E0.03036
G1 X56.415 Y95.550 E0.03004
G1 X56.355 Y84.832 E0.33608
G1 X56.439 Y84.382 E0.01436
G1 X56.851 Y83.367 E0.03434
G1 X57.461 Y82.487 E0.03357
G1 X59.530 Y80.464 E0.09074
G1 X60.354 Y79.955 E0.03036
G1 X61.194 Y79.636 E0.02816
M204 S1250
G1 X61.327 Y79.989 F9000.000
M204 S800
G1 F1200.000
G1 X118.438 Y79.935 E1.79068
M73 P3 R19
G1 X119.319 Y80.226 E0.02909
G1 X120.245 Y80.763 E0.03356
G1 X122.276 Y82.758 E0.08925
G1 X123.005 Y83.945 E0.04369
G1 X123.337 Y85.275 E0.04297
G1 X123.219 Y95.452 E0.31912
G1 X122.900 Y96.295 E0.02827
G1 X122.427 Y97.053 E0.02798
G1 X120.457 Y99.062 E0.08823
G1 X119.561 Y99.667 E0.03391
G1 X118.582 Y100.035 E0.03278
G1 X118.354 Y100.068 E0.00724
G1 X62.063 Y100.137 E1.76497
G1 X60.744 Y99.804 E0.04264
G1 X59.555 Y99.074 E0.04374
G1 X57.573 Y97.053 E0.08879
G1 X57.100 Y96.295 E0.02798
G1 X56.780 Y95.449 E0.02839
G1 X56.732 Y84.848 E0.33237
G1 X56.796 Y84.504 E0.01096
G1 X57.174 Y83.563 E0.03180
G1 X57.738 Y82.743 E0.03120
G1 X59.747 Y80.773 E0.08825
M73 P3 R18
G1 X60.505 Y80.300 E0.02798
G1 X61.271 Y80.010 E0.02569
M204 S1250
G1 X61.403 Y80.363 F9000.000
M204 S800
G1 F1200.000
G1 X61.452 Y80.345 E0.00162
G1 X118.351 Y80.303 E1.78403
G1 X119.148 Y80.563 E0.02629
G1 X120.035 Y81.077 E0.03216
G1 X121.995 Y83.010 E0.08631
G1 X122.647 Y84.067 E0.03892
G1 X122.960 Y85.296 E0.03977
G1 X122.855 Y95.351 E0.31529
G1 X122.569 Y96.112 E0.02548
G1 X122.119 Y96.835 E0.02673
G1 X120.201 Y98.784 E0.08570
G1 X119.405 Y99.322 E0.03013
G1 X118.505 Y99.666 E0.03021
G1 X118.339 Y99.691 E0.00528
G1 X62.086 Y99.759 E1.76375
M73 P4 R18
G1 X60.866 Y99.447 E0.03951
G1 X59.808 Y98.794 E0.03897
G1 X57.881 Y96.835 E0.08614
G1 X57.431 Y96.112 E0.02673
G1 X57.144 Y95.348 E0.02557
G1 X57.109 Y84.864 E0.32871
G1 X57.153 Y84.626 E0.00761
G1 X57.497 Y83.758 E0.02927
G1 X58.016 Y82.999 E0.02882
G1 X59.965 Y81.081 E0.08572
G1 X60.688 Y80.631 E0.02673
G1 X61.347 Y80.384 E0.02207
M204 S1250
G1 X61.479 Y80.737 F9000.000
M204 S800
G1 F1200.000
G1 X61.552 Y80.710 E0.00244
G1 X118.264 Y80.671 E1.77816
G1 X118.977 Y80.899 E0.02346
G1 X119.825 Y81.391 E0.03075
G1 X121.713 Y83.262 E0.08333
G1 X122.310 Y84.239 E0.03590
G1 X122.583 Y85.317 E0.03487
G1 X122.490 Y95.250 E0.31146
G1 X122.223 Y95.961 E0.02383
G1 X121.811 Y96.617 E0.02428
G1 X119.946 Y98.506 E0.08322
G1 X119.249 Y98.978 E0.02641
G1 X118.424 Y99.297 E0.02774
G1 X118.322 Y99.314 E0.00324
G1 X62.109 Y99.382 E1.76251
G1 X61.038 Y99.110 E0.03467
G1 X60.060 Y98.512 E0.03593
G1 X58.189 Y96.617 E0.08350
G1 X57.777 Y95.961 E0.02428
G1 X57.509 Y95.247 E0.02390
G1 X57.486 Y84.881 E0.32503
G1 X57.511 Y84.746 E0.00432
G1 X57.821 Y83.951 E0.02674
G1 X58.294 Y83.254 E0.02642
G1 X60.183 Y81.389 E0.08322
G1 X60.839 Y80.977 E0.02428
G1 X61.423 Y80.758 E0.01957
M204 S1250
G1 X61.555 Y81.111 F9000.000
M204 S800
G1 F1200.000
G1 X61.653 Y81.074 E0.00326
G1 X118.179 Y81.040 E1.77235
M73 P5 R18
G1 X118.806 Y81.236 E0.02060
G1 X119.615 Y81.705 E0.02931
G1 X121.432 Y83.513 E0.08036
G1 X121.953 Y84.361 E0.03120
G1 X122.206 Y85.339 E0.03167
G1 X122.125 Y95.149 E0.30759
G1 X121.877 Y95.810 E0.02215
G1 X121.504 Y96.397 E0.02180
G1 X119.692 Y98.227 E0.08074
G1 X119.057 Y98.653 E0.02398
G1 X118.302 Y98.937 E0.02528
G1 X62.134 Y99.005 E1.76112
G1 X61.160 Y98.752 E0.03152
G1 X60.312 Y98.231 E0.03122
G1 X58.496 Y96.397 E0.08092
G1 X58.123 Y95.810 E0.02180
G1 X57.874 Y95.147 E0.02221
G1 X57.870 Y84.864 E0.32240
G1 X58.147 Y84.143 E0.02423
G1 X58.573 Y83.508 E0.02398
G1 X60.403 Y81.696 E0.08074
G1 X60.990 Y81.323 E0.02180
G1 X61.499 Y81.132 E0.01706
M204 S1250
G1 X61.629 Y81.485 F9000.000
M204 S800
G1 F1200.000
G1 X61.751 Y81.440 E0.00408
G1 X118.096 Y81.408 E1.76666
G1 X118.636 Y81.574 E0.01770
G1 X119.404 Y82.019 E0.02783
G1 X121.150 Y83.764 E0.07739
G1 X121.596 Y84.485 E0.02659
G1 X121.828 Y85.362 E0.02844
G1 X121.760 Y95.050 E0.30375
G1 X121.548 Y95.625 E0.01924
G1 X121.197 Y96.177 E0.02051
G1 X119.437 Y97.948 E0.07826
G1 X118.902 Y98.309 E0.02026
G1 X118.249 Y98.560 E0.02191
G1 X62.158 Y98.628 E1.75870
M73 P6 R18
G1 X61.285 Y98.395 E0.02834
G1 X60.564 Y97.949 E0.02658
G1 X58.803 Y96.177 E0.07833
G1 X58.452 Y95.625 E0.02051
G1 X58.240 Y95.049 E0.01927
G1 X58.240 Y84.951 E0.31661
G1 X58.491 Y84.298 E0.02191
G1 X58.852 Y83.763 E0.02026
G1 X60.623 Y82.003 E0.07826
G1 X61.175 Y81.652 E0.02051
G1 X61.573 Y81.506 E0.01330
M204 S1250
G1 X61.833 Y82.213 F9000.000
M204 S800
G1 F1200.000
G1 X61.949 Y82.171 E0.00387
G1 X117.938 Y82.147 E1.75550
G1 X118.306 Y82.253 E0.01200
G1 X118.908 Y82.589 E0.02162
G1 X120.587 Y84.268 E0.07442
G1 X120.885 Y84.742 E0.01756
G1 X121.074 Y85.412 E0.02184
G1 X121.029 Y94.851 E0.29595
G1 X120.855 Y95.324 E0.01580
G1 X120.587 Y95.732 E0.01531
G1 X118.932 Y97.387 E0.07341
G1 X118.524 Y97.655 E0.01531
G1 X118.051 Y97.829 E0.01580
G1 X62.211 Y97.874 E1.75082
G1 X61.542 Y97.685 E0.02180
G1 X61.068 Y97.387 E0.01755
G1 X59.413 Y95.732 E0.07338
G1 X59.145 Y95.324 E0.01531
G1 X58.971 Y94.851 E0.01580
G1 X58.971 Y85.149 E0.30417
G1 X59.145 Y84.676 E0.01580
G1 X59.413 Y84.268 E0.01531
G1 X61.068 Y82.613 E0.07341
G1 X61.476 Y82.345 E0.01531
G1 X61.777 Y82.234 E0.01005
M204 S1250
G1 X61.904 Y82.587 F9000.000
M204 S800
G1 F1200.000
G1 X62.045 Y82.537 E0.00471
G1 X117.864 Y82.518 E1.75017
M73 P7 R18
G1 X118.147 Y82.595 E0.00919
G1 X118.661 Y82.876 E0.01838
G1 X120.306 Y84.520 E0.07291
G1 X120.531 Y84.875 E0.01318
G1 X120.697 Y85.439 E0.01844
G1 X120.663 Y94.755 E0.29209
G1 X120.526 Y95.139 E0.01278
G1 X120.306 Y95.480 E0.01273
G1 X118.680 Y97.106 E0.07211
G1 X118.339 Y97.326 E0.01273
G1 X117.955 Y97.463 E0.01278
G1 X62.239 Y97.497 E1.74695
G1 X61.675 Y97.331 E0.01843
G1 X61.320 Y97.106 E0.01318
G1 X59.694 Y95.480 E0.07210
G1 X59.474 Y95.139 E0.01273
G1 X59.337 Y94.755 E0.01278
G1 X59.337 Y85.245 E0.29817
G1 X59.474 Y84.861 E0.01278
G1 X59.694 Y84.520 E0.01273
G1 X61.320 Y82.894 E0.07211
G1 X61.661 Y82.674 E0.01273
G1 X61.847 Y82.607 E0.00619
M204 S1250
G1 X61.974 Y82.962 F9000.000
M204 S800
G1 F1200.000
G1 X62.142 Y82.902 E0.00557
G1 X117.795 Y82.889 E1.74496
G1 X117.993 Y82.940 E0.00641
G1 X118.416 Y83.163 E0.01500
G1 X120.025 Y84.773 E0.07137
G1 X120.179 Y85.012 E0.00892
G1 X120.320 Y85.468 E0.01496
G1 X120.298 Y94.658 E0.28815
G1 X120.178 Y94.991 E0.01108
G1 X120.025 Y95.227 E0.00882
G1 X118.427 Y96.825 E0.07088
G1 X118.191 Y96.978 E0.00882
G1 X117.858 Y97.098 E0.01107
G1 X62.268 Y97.120 E1.74299
M73 P8 R18
G1 X61.812 Y96.979 E0.01496
G1 X61.573 Y96.825 E0.00892
G1 X59.975 Y95.227 E0.07087
G1 X59.822 Y94.991 E0.00882
G1 X59.702 Y94.658 E0.01107
G1 X59.702 Y85.342 E0.29212
G1 X59.822 Y85.009 E0.01107
G1 X59.975 Y84.773 E0.00882
G1 X61.573 Y83.175 E0.07088
G1 X61.809 Y83.022 E0.00882
G1 X61.918 Y82.983 E0.00362
M204 S1250
G1 X61.958 Y83.369 F9000.000
M204 S800
G1 F1200.000
G1 X62.238 Y83.268 E0.00935
G1 X117.731 Y83.261 E1.73995
G1 X117.846 Y83.288 E0.00369
G1 X118.171 Y83.452 E0.01144
G1 X119.745 Y85.026 E0.06978
G1 X119.830 Y85.155 E0.00484
G1 X119.943 Y85.500 E0.01136
G1 X119.932 Y94.562 E0.28413
G1 X119.831 Y94.842 E0.00935
G1 X119.745 Y94.974 E0.00492
G1 X118.174 Y96.545 E0.06968
G1 X118.042 Y96.631 E0.00492
G1 X117.762 Y96.732 E0.00935
G1 X62.300 Y96.743 E1.73897
M73 P8 R17
G1 X61.955 Y96.630 E0.01136
G1 X61.826 Y96.545 E0.00484
G1 X60.255 Y94.974 E0.06968
G1 X60.169 Y94.842 E0.00492
G1 X60.068 Y94.562 E0.00935
G1 X60.068 Y85.438 E0.28606
G1 X60.169 Y85.158 E0.00935
G1 X60.255 Y85.026 E0.00492
G1 X61.826 Y83.455 E0.06968
G1 X61.907 Y83.402 E0.00304
M204 S1250
G1 X62.107 Y83.716 F9000.000
M204 S800
G1 F1200.000
G1 X62.335 Y83.634 E0.00757
G1 X117.679 Y83.634 E1.73529
M73 P9 R17
G1 X117.930 Y83.744 E0.00856
G1 X119.466 Y85.280 E0.06813
G1 X119.566 Y85.535 E0.00856
G1 X119.566 Y94.465 E0.28001
G1 X119.466 Y94.720 E0.00856
G1 X117.920 Y96.266 E0.06858
G1 X117.665 Y96.366 E0.00856
G1 X62.335 Y96.366 E1.73485
G1 X62.080 Y96.266 E0.00856
G1 X60.534 Y94.720 E0.06858
G1 X60.434 Y94.465 E0.00856
G1 X60.434 Y85.535 E0.28001
G1 X60.534 Y85.280 E0.00856
G1 X62.061 Y83.753 E0.06771
M204 S1250
G1 X62.307 Y84.040 F9000.000
M204 S800
G1 F1200.000
G1 X62.377 Y84.011 E0.00235
G1 X117.623 Y84.011 E1.73222
G1 X117.693 Y84.040 E0.00235
G1 X119.160 Y85.507 E0.06506
G1 X119.189 Y85.577 E0.00235
G1 X119.189 Y94.423 E0.27738
G1 X119.160 Y94.493 E0.00235
G1 X117.693 Y95.960 E0.06506
G1 X117.623 Y95.989 E0.00235
G1 X62.377 Y95.989 E1.73222
G1 X62.307 Y95.960 E0.00235
G1 X60.840 Y94.493 E0.06506
G1 X60.811 Y94.423 E0.00235
G1 X60.811 Y85.577 E0.27738
M73 P10 R17
G1 X60.840 Y85.507 E0.00235
G1 X62.265 Y84.083 E0.06318
M204 S1250
; printing object cs2.stl id:0 copy 0
G1 X62.584 Y84.610 F9000.000
M204 S800
;TYPE:External perimeter
G1 F1200.000
G1 X117.416 Y84.610 E1.71922
G1 X118.590 Y85.784 E0.05206
G1 X118.590 Y94.216 E0.26438
G1 X117.416 Y95.390 E0.05206
G1 X62.584 Y95.390 E1.71922
G1 X61.410 Y94.216 E0.05206
G1 X61.410 Y85.784 E0.26438
G1 X62.542 Y84.652 E0.05018
M204 S1250
G1 X62.922 Y84.824 F9000.000
G1 X61.838 Y85.889
M204 S800
;TYPE:Perimeter
G1 F1200.000
G1 X61.838 Y94.111 E0.25777
G1 X61.787 Y94.060 E0.00225
G1 X61.795 Y85.932 E0.25485
M204 S1250
G1 X62.215 Y85.415 F9000.000
M204 S800
;TYPE:External perimeter
G1 F1200.000
G1 X71.385 Y85.415 E0.28752
G1 X71.385 Y94.585 E0.28752
G1 X62.215 Y94.585 E0.28752
G1 X62.215 Y85.475 E0.28564
M204 S1250
G1 X62.111 Y85.029 F9000.000
G1 E-2.24000 F4200.000
;WIPE_START
G1 F7200.000
G1 X63.861 Y85.464 E-0.91200
;WIPE_END
G1 E-0.04800 F4200.000
G1 Z0.400 F9000.000
G1 X118.162 Y85.889
G1 Z0.200
G1 E3.20000 F2400.000
M204 S800
;TYPE:Perimeter
G1 F1200.000
G1 X118.213 Y85.940 E0.00225
G1 X118.213 Y94.060 E0.25458
G1 X118.162 Y94.111 E0.00225
G1 X118.162 Y85.949 E0.25589
M204 S1250
M73 P11 R17
G1 X117.311 Y85.038 F9000.000
M204 S800
G1 F1200.000
G1 X108.238 Y85.038 E0.28447
G1 X108.238 Y94.962 E0.31117
G1 X117.311 Y94.962 E0.28447
G1 X117.260 Y95.013 E0.00225
G1 X62.740 Y95.013 E1.70942
G1 X62.689 Y94.962 E0.00225
G1 X71.762 Y94.962 E0.28447
G1 X71.762 Y85.038 E0.31117
G1 X62.689 Y85.038 E0.28447
G1 X62.740 Y84.987 E0.00225
G1 X117.268 Y84.995 E1.70969
M204 S1250
G1 E-2.24000 F4200.000
;WIPE_START
G1 F7200.000
G1 X115.622 Y85.003 E-0.91200
;WIPE_END
G1 E-0.04800 F4200.000
G1 Z0.400 F9000.000
G1 X106.185 Y85.415
G1 Z0.200
G1 E3.20000 F2400.000
M204 S800
;TYPE:External perimeter
G1 F1200.000
G1 X106.185 Y94.585 E0.28752
G1 X97.015 Y94.585 E0.28752
G1 X97.015 Y85.415 E0.28752
G1 X106.125 Y85.415 E0.28564
M204 S1250
G1 X106.571 Y85.311 F9000.000
G1 E-2.24000 F4200.000
;WIPE_START
G1 F7200.000
G1 X106.136 Y87.061 E-0.91200
;WIPE_END
G1 E-0.04800 F4200.000
G1 Z0.400 F9000.000
G1 X96.638 Y85.038
G1 Z0.200
G1 E3.20000 F2400.000
M204 S800
;TYPE:Perimeter
G1 F1200.000
G1 X106.562 Y85.038 E0.31116
M73 P12 R17
G1 X106.562 Y94.962 E0.31117
G1 X96.638 Y94.962 E0.31116
G1 X96.638 Y85.098 E0.30928
M204 S1250
G1 E-2.24000 F4200.000
;WIPE_START
G1 F7200.000
G1 X98.284 Y85.088 E-0.91200
;WIPE_END
G1 E-0.04800 F4200.000
G1 Z0.400 F9000.000
G1 X82.985 Y85.415
G1 Z0.200
G1 E3.20000 F2400.000
M204 S800
;TYPE:External perimeter
G1 F1200.000
G1 X82.985 Y94.585 E0.28752
G1 X73.815 Y94.585 E0.28752
G1 X73.815 Y85.415 E0.28752
G1 X82.925 Y85.415 E0.28564
M204 S1250
G1 X83.371 Y85.311 F9000.000
G1 E-2.24000 F4200.000
;WIPE_START
G1 F7200.000
G1 X82.936 Y87.061 E-0.91200
;WIPE_END
G1 E-0.04800 F4200.000
G1 Z0.400 F9000.000
G1 X73.438 Y85.038
G1 Z0.200
G1 E3.20000 F2400.000
M204 S800
;TYPE:Perimeter
G1 F1200.000
G1 X83.362 Y85.038 E0.31116
G1 X83.362 Y94.962 E0.31117
G1 X73.438 Y94.962 E0.31116
G1 X73.438 Y85.098 E0.30928
M204 S1250
G1 E-2.24000 F4200.000
;WIPE_START
G1 F7200.000
G1 X75.084 Y85.088 E-0.91200
;WIPE_END
G1 E-0.04800 F4200.000
G1 Z0.400 F9000.000
G1 X85.415 Y85.415
G1 Z0.200
G1 E3.20000 F2400.000
M204 S800
;TYPE:External perimeter
G1 F1200.000
G1 X94.585 Y85.415 E0.28752
G1 X94.585 Y94.585 E0.28752
G1 X85.415 Y94.585 E0.28752
G1 X85.415 Y85.475 E0.28564
M204 S1250
G1 X85.311 Y85.029 F9000.000
G1 X85.038 Y85.038
M204 S800
;TYPE:Perimeter
G1 F1200.000
G1 X94.962 Y85.038 E0.31117
G1 X94.962 Y94.962 E0.31117
G1 X85.038 Y94.962 E0.31117
G1 X85.038 Y85.098 E0.30928
M204 S1250
G1 E-2.24000 F4200.000
;WIPE_START
G1 F7200.000
G1 X86.684 Y85.088 E-0.91200
;WIPE_END
G1 E-0.04800 F4200.000
G1 Z0.400 F9000.000
G1 X108.615 Y85.415
M73 P13 R17
G1 Z0.200
G1 E3.20000 F2400.000
M204 S800
;TYPE:External perimeter
G1 F1200.000
G1 X117.785 Y85.415 E0.28752
G1 X117.785 Y94.585 E0.28752
G1 X108.615 Y94.585 E0.28752
G1 X108.615 Y85.475 E0.28564
M204 S1250
G1 X108.511 Y85.029 F9000.000
G1 X107.955 Y85.377
M204 S800
;TYPE:Solid infill
G1 F1200.000
G1 X106.845 Y86.487 E0.04923
M204 S1250
G1 X106.845 Y87.020 F9000.000
M204 S800
G1 F1200.000
G1 X107.955 Y85.910 E0.04923
M204 S1250
G1 X107.955 Y86.443 F9000.000
M204 S800
G1 F1200.000
G1 X106.845 Y87.553 E0.04923
M204 S1250
G1 X106.845 Y88.087 F9000.000
M204 S800
G1 F1200.000
G1 X107.955 Y86.976 E0.04923
